X: 20
T: Missa Ave sanctissima Maria / Kyrie
N: Derived from Rue1005a-Missa_Ave_sanctissima_Maria-Kyrie.krn
C: Pierre de la Rue
%%abc-version 2.0
%%abcx-abcm2ps-target-version 5.9.1 (29 Sep 2008)
%%abc-creator hum2abc beta
%%abcx-conversion-date 2019/02/17 08:01:10
%%abc-edited-by Jesse Rodin
%%abc-edited-by Chris Gage 12-13-2012
%%abcx-initial-encoding-date 2013/07/18/
%%humdrum-veritas 1051364480
%%humdrum-veritas-data 3223055930
%%linebreak <none>
%%barnumbers 0
L: 1/4
M: 2/1
Q: 1/2=120
V: 1 clef=treble
V: 2 clef=treble
V: 3 clef=treble-8
V: 4 clef=treble-8
V: 5 clef=bass
V: 6 clef=bass
K: C
[V:1] z8 | 
[V:2] G8- | 
[V:3] z8 | 
[V:4] G6E2 | 
[V:5] z8 | 
[V:6] G,8- | 
[V:1] z8 | 
[V:2] G4E4 | 
[V:3] z8 | 
[V:4] E8 | 
[V:5] z8 | 
[V:6] G,4C,4 | 
[V:1] c8- | 
[V:2] E8 | 
[V:3] c6A2 | 
[V:4] E8 | 
[V:5] C8- | 
[V:6] C,8 | 
[V:1] c4A4 | 
[V:2] z4A4 | 
[V:3] A8 | 
[V:4] A4A2F2- | 
[V:5] C4F,4 | 
[V:6] z4D,4- | 
[V:1] A8 | 
[V:2] A2F4D2 | 
[V:3] A8 | 
[V:4] F2D2D4- | 
[V:5] F,8 | 
[V:6] D,4D,4 | 
[V:1] z4d4 | 
[V:2] D8- | 
[V:3] d4d2B2- | 
[V:4] D4D4 | 
[V:5] z4G,4- | 
[V:6] G,,8- | 
[V:1] d2B4G2 | 
[V:2] D8 | 
[V:3] B2G2G4- | 
[V:4] D8 | 
[V:5] G,4G,4 | 
[V:6] G,,8 | 
[V:1] G8- | 
[V:2] z4G4 | 
[V:3] G4G4 | 
[V:4] z8 | 
[V:5] C,8- | 
[V:6] z4G,4- | 
[V:1] G8 | 
[V:2] G6F2 | 
[V:3] G8 | 
[V:4] G4G4 | 
[V:5] C,8 | 
[V:6] G,2F,2E,2D,2 | 
[V:1] z4c4 | 
[V:2] E2D2C2B,2 | 
[V:3] z8 | 
[V:4] A6GF | 
[V:5] z4C4- | 
[V:6] C,2B,,2A,,4- | 
[V:1] c6B2 | 
[V:2] A,4E4 | 
[V:3] c4c4 | 
[V:4] E4A4- | 
[V:5] C2B,2A,2G,2 | 
[V:6] A,,4A,,4 | 
[V:1] A2G2F2E2 | 
[V:2] F8- | 
[V:3] d6cB | 
[V:4] A4A4 | 
[V:5] F,2E,2D,4- | 
[V:6] D,8 | 
[V:1] D4A4 | 
[V:2] F4D4 | 
[V:3] A4d4- | 
[V:4] F6G2 | 
[V:5] D,4D,4- | 
[V:6] D,6G,,2 | 
[V:1] B8- | 
[V:2] D8- | 
[V:3] d8- | 
[V:4] G8- | 
[V:5] D,8- | 
[V:6] G,,8- | 
[V:1] B4G4 | 
[V:2] D8- | 
[V:3] d8- | 
[V:4] G8- | 
[V:5] D,8- | 
[V:6] G,,8- | 
[V:1] G8 ||  
[V:2] D8 ||  
[V:3] d8 ||  
[V:4] G8 ||  
[V:5] D,8 ||  
[V:6] G,,8 ||  
[V:1]  [K:C] [K:clef=treble][M:2/1]z8 | 
[V:2]  [K:C] [K:clef=treble][M:2/1]z4G4 | 
[V:3]  [K:C] [K:clef=treble-8][M:2/1]z8 | 
[V:4]  [K:C] [K:clef=treble-8][M:2/1]G4G2E2- | 
[V:5]  [K:C] [K:clef=bass][M:2/1]z8 | 
[V:6]  [K:C] [K:clef=bass][M:2/1]z8 | 
[V:1] z8 | 
[V:2] G2E3FG2- | 
[V:3] z8 | 
[V:4] EFG3FED | 
[V:5] z8 | 
[V:6] z8 | 
[V:1] z8 | 
[V:2] GFEDC4 | 
[V:3] z8 | 
[V:4] C2G2A2A2- | 
[V:5] z8 | 
[V:6] C,4C,2A,,2- | 
[V:1] z8 | 
[V:2] z4G4 | 
[V:3] z8 | 
[V:4] A2GFE4 | 
[V:5] z8 | 
[V:6] A,,B,,C,3B,,A,,G,, | 
[V:1] z4c4 | 
[V:2] A8 | 
[V:3] c4c2A2- | 
[V:4] F8- | 
[V:5] z8 | 
[V:6] F,,8- | 
[V:1] c2A3Bc2- | 
[V:2] A8 | 
[V:3] ABc3BAG | 
[V:4] F8 | 
[V:5] z8 | 
[V:6] F,,8 | 
[V:1] cBAGF4 | 
[V:2] A4A2F2- | 
[V:3] F2c2d2d2- | 
[V:4] z8 | 
[V:5] F,4F,2D,2- | 
[V:6] z8 | 
[V:1] z4c4 | 
[V:2] FGA3GFE | 
[V:3] d2cBA4 | 
[V:4] z4F4 | 
[V:5] D,E,F,3E,D,C, | 
[V:6] z4F,,4 | 
[V:1] d8 | 
[V:2] D8 | 
[V:3] _B8- | 
[V:4] F2G4F2 | 
[V:5] _B,,8- | 
[V:6] _B,,3C,D,4 | 
[V:1] d8 | 
[V:2] D8 | 
[V:3] B8 | 
[V:4] G8 | 
[V:5] B,,8 | 
[V:6] G,,8- | 
[V:1] d4d2_B2- | 
[V:2] G8 | 
[V:3] z8 | 
[V:4] D6G2- | 
[V:5] z8 | 
[V:6] G,,8 | 
[V:1] Bcd3c_BA | 
[V:2] G8 | 
[V:3] z4_B4 | 
[V:4] G2FED2G2- | 
[V:5] z4_B,,4 | 
[V:6] G,,8- | 
[V:1] G8 | 
[V:2] z4G4 | 
[V:3] _B2c4=B2 | 
[V:4] G2F_ED4 | 
[V:5] _E,3F,G,4 | 
[V:6] G,,8 | 
[V:1] G8 | 
[V:2] E8 | 
[V:3] c8 | 
[V:4] E8 | 
[V:5] C,8- | 
[V:6] z8 | 
[V:1] c8 | 
[V:2] E3FG2A2- | 
[V:3] G6c2- | 
[V:4] E8 | 
[V:5] C,8 | 
[V:6] z8 | 
[V:1] c8 | 
[V:2] AGF2E2A2 | 
[V:3] c2BAG2c2- | 
[V:4] F4G2E2- | 
[V:5] C,8- | 
[V:6] F,,4C,4- | 
[V:1] z4c4 | 
[V:2] GFF4E2 | 
[V:3] c2BAG4 | 
[V:4] E2F2G4 | 
[V:5] C,8 | 
[V:6] C,2F,,2C,4 | 
[V:1] A8 | 
[V:2] F8- | 
[V:3] A8 | 
[V:4] F8- | 
[V:5] z8 | 
[V:6] F,,8 | 
[V:1] A3_Bc2d2- | 
[V:2] F8 | 
[V:3] A8 | 
[V:4] F8 | 
[V:5] z8 | 
[V:6] F,,3G,,A,,2F,,2 | 
[V:1] dc_B2A2d2 | 
[V:2] z4F4- | 
[V:3] _B4c2A2- | 
[V:4] z8 | 
[V:5] _B,,4F,4- | 
[V:6] G,,4F,,4 | 
[V:1] c_BB4A2 | 
[V:2] F4F4 | 
[V:3] A2_B2c4 | 
[V:4] z8 | 
[V:5] F,2_B,,2F,4 | 
[V:6] z4F,,4 | 
[V:1] _B8- | 
[V:2] D4D4- | 
[V:3] _B8- | 
[V:4] G6FE | 
[V:5] _B,,8 | 
[V:6] G,,8 | 
[V:1] B8 | 
[V:2] D4_B,4 | 
[V:3] B8 | 
[V:4] D4G2G2- | 
[V:5] _B,,3C,D,2B,,2 | 
[V:6] G,,3A,,_B,,2G,,2 | 
[V:1] z4_B4- | 
[V:2] A,4D4- | 
[V:3] z8 | 
[V:4] G2^F2G4- | 
[V:5] C,4_B,,4 | 
[V:6] A,,4G,,4 | 
[V:1] B4_B4 | 
[V:2] D4D4 | 
[V:3] z8 | 
[V:4] G4G4 | 
[V:5] z4_B,,4 | 
[V:6] z4G,,4 | 
[V:1] G4G4- | 
[V:2] _E8 | 
[V:3] c6_BA | 
[V:4] G8- | 
[V:5] C,8 | 
[V:6] C,8 | 
[V:1] G4_E4 | 
[V:2] C8 | 
[V:3] G8- | 
[V:4] G8 | 
[V:5] C,3D,_E,2C,2 | 
[V:6] C,8 | 
[V:1] D8 ||  
[V:2] _B,8 ||  
[V:3] G8 ||  
[V:4] G8 ||  
[V:5] D,8 ||  
[V:6] G,,8 ||  
[V:1]  [K:C] [K:clef=treble][M:2/1]z8 | 
[V:2]  [K:C] [K:clef=treble][M:2/1]B,6B,2 | 
[V:3]  [K:C] [K:clef=treble-8][M:2/1]z8 | 
[V:4]  [K:C] [K:clef=treble-8][M:2/1]D6D2 | 
[V:5]  [K:C] [K:clef=bass][M:2/1]z8 | 
[V:6]  [K:C] [K:clef=bass][M:2/1]G,,6G,,2 | 
[V:1] z8 | 
[V:2] C2A,2CDEF | 
[V:3] z8 | 
[V:4] E3FE2CD | 
[V:5] z8 | 
[V:6] C,8 | 
[V:1] z8 | 
[V:2] G3FEDE2- | 
[V:3] z8 | 
[V:4] EFG4C2 | 
[V:5] z8 | 
[V:6] C,3D,E,F,G,2- | 
[V:1] E6E2 | 
[V:2] EDCB,C4 | 
[V:3] G6G2 | 
[V:4] E3FG4 | 
[V:5] C,6C,2 | 
[V:6] G,F,E,D,E,4 | 
[V:1] F2D2FGAB | 
[V:2] D8 | 
[V:3] A3_BA2FG | 
[V:4] F8 | 
[V:5] F,8 | 
[V:6] D,8 | 
[V:1] c3BAGA2- | 
[V:2] z8 | 
[V:3] ABc4F2 | 
[V:4] z8 | 
[V:5] F,3G,A,B,C2- | 
[V:6] z8 | 
[V:1] AGFEF4 | 
[V:2] z8 | 
[V:3] A3Bc4 | 
[V:4] z8 | 
[V:5] CB,A,G,A,4 | 
[V:6] z8 | 
[V:1] G8 | 
[V:2] z2D2DCB,A, | 
[V:3] B8 | 
[V:4] z4G4- | 
[V:5] G,8 | 
[V:6] G,,4G,,4 | 
[V:1] z8 | 
[V:2] G,2D3EFG | 
[V:3] z8 | 
[V:4] G2FED3E | 
[V:5] z8 | 
[V:6] G,,3A,,B,,C,D,2- | 
[V:1] z8 | 
[V:2] A2G4^F2 | 
[V:3] z8 | 
[V:4] F2G2A4 | 
[V:5] z8 | 
[V:6] D,2G,,2D,4 | 
[V:1] z2G2GFED | 
[V:2] G8- | 
[V:3] z4c4- | 
[V:4] G8- | 
[V:5] C,4C,4 | 
[V:6] E,8- | 
[V:1] C2G3ABc | 
[V:2] G8 | 
[V:3] c2BAG3A | 
[V:4] G8 | 
[V:5] C,3D,E,F,G,2- | 
[V:6] E,8 | 
[V:1] d2c4B2 | 
[V:2] z4G4 | 
[V:3] B2c2d4 | 
[V:4] z4G4 | 
[V:5] G,2C,2G,4 | 
[V:6] z8 | 
[V:1] c8- | 
[V:2] E4E2F2 | 
[V:3] c8- | 
[V:4] C3DE2A,2- | 
[V:5] A,8- | 
[V:6] A,,8 | 
[V:1] c8 | 
[V:2] E2F4ED | 
[V:3] c8 | 
[V:4] A,2A3GF2 | 
[V:5] A,8 | 
[V:6] A,,8 | 
[V:1] z4c4 | 
[V:2] C2D2CDEC | 
[V:3] z4c4 | 
[V:4] E2D2E4 | 
[V:5] z8 | 
[V:6] A,,8 | 
[V:1] A4A2_B2 | 
[V:2] D8 | 
[V:3] F3GA2D2- | 
[V:4] D8 | 
[V:5] D,8 | 
[V:6] z8 | 
[V:1] A2_B4AG | 
[V:2] z8 | 
[V:3] D2d3cB2 | 
[V:4] z8 | 
[V:5] D,8 | 
[V:6] z8 | 
[V:1] F2G2^FGAF | 
[V:2] z8 | 
[V:3] A2G2A4 | 
[V:4] z8 | 
[V:5] D,8 | 
[V:6] z8 | 
[V:1] G8 | 
[V:2] z4G4 | 
[V:3] G8 | 
[V:4] z4G4 | 
[V:5] z8 | 
[V:6] z8 | 
[V:1] z8 | 
[V:2] E2F2E2A2- | 
[V:3] z8 | 
[V:4] C3DE2F2- | 
[V:5] z8 | 
[V:6] A,,8 | 
[V:1] z8 | 
[V:2] AGFEF2ED | 
[V:3] z8 | 
[V:4] FEC2F2A2- | 
[V:5] z8 | 
[V:6] A,,8 | 
[V:1] z4c4 | 
[V:2] C2D2CDEC | 
[V:3] z4c4 | 
[V:4] AGF2E4 | 
[V:5] z8 | 
[V:6] A,,8 | 
[V:1] A2_B2A2d2- | 
[V:2] D8- | 
[V:3] F3GA2_B2- | 
[V:4] D4z2D2- | 
[V:5] D,8 | 
[V:6] D,3E,F,2_B,,2- | 
[V:1] dc_BAB2AG | 
[V:2] D8 | 
[V:3] BAF2_B2d2- | 
[V:4] DEF2G4 | 
[V:5] D,8 | 
[V:6] B,,C,D,2G,,3A,, | 
[V:1] F2G2^FGAF | 
[V:2] D8- | 
[V:3] dc_B2A4 | 
[V:4] D2G2A4 | 
[V:5] D,8- | 
[V:6] _B,,2G,,2D,4 | 
[V:1] G8 |]  
[V:2] D8 |]  
[V:3] G8 |]  
[V:4] B8 |]  
[V:5] D,8 |]  
[V:6] G,,8 |]  



